images/userflow.svg

<svg fill="none" height="92" viewBox="0 0 520 92" width="520" xmlns="http://www.w3.org/2000/svg"><path d="m29.831 91.8667c-5.8074 0-10.9511-.9126-15.4311-2.7378-4.47997-1.8252-7.9644-4.6044-10.45328-8.3378-2.48888-3.8162-3.733321-8.7525-3.733321-14.8088v-38.9509h18.542101v37.4576c0 3.9822.8712 6.9689 2.6134 8.96 1.8251 1.9081 4.6874 2.8622 8.5866 2.8622 3.9822 0 6.8444-.9541 8.5866-2.8622 1.7422-1.9911 2.6134-4.9778 2.6134-8.96v-37.4576h17.4221v38.9509c0 8.96-2.5718 15.514-7.7155 19.6622-5.1437 4.1481-12.154 6.2222-21.031 6.2222zm61.2993 0c-4.48 0-8.3378-.4978-11.5733-1.4934-3.1526-.9126-6.1392-1.9496-8.96-3.1111v-16.3021c1.7423 1.1615 3.6919 2.3644 5.8489 3.6089 2.157 1.1614 4.5215 2.1155 7.0933 2.8622 2.6548.7466 5.4341 1.12 8.3378 1.12 2.9866 0 5.0607-.4978 6.2221-1.4934 1.2445-1.0785 1.8667-2.3644 1.8667-3.8577 0-1.4104-.6222-2.5304-1.8667-3.36-1.2444-.9126-2.8622-1.6593-4.8533-2.24s-4.1066-1.12-6.3466-1.6178c-1.9911-.4148-3.9822-1.037-5.9733-1.8666-1.9911-.9126-3.7748-2.1156-5.3511-3.6089s-2.8622-3.3185-3.8578-5.4755c-.9126-2.24-1.3689-4.9363-1.3689-8.0889 0-4.0652.7882-7.4252 2.3645-10.08 1.5763-2.7377 3.6503-4.9362 6.2222-6.5955 2.5718-1.6592 5.3511-2.8207 8.3377-3.4844 2.9867-.7467 5.8904-1.0785 8.7111-.9956 5.1434.166 9.2084.7467 12.1954 1.7422 3.07.9126 5.849 2.1156 8.338 3.6089v14.56c-2.821-1.5763-5.642-3.0282-8.462-4.3556-2.738-1.4103-5.891-2.1155-9.4581-2.1155-3.2355 0-5.5585.4977-6.9688 1.4933-1.4104.9956-2.1156 2.323-2.1156 3.9822 0 1.5763.4563 2.8207 1.3689 3.7333.9956.9126 2.2815 1.6593 3.8578 2.24 1.5762.4978 3.3185.9956 5.2266 1.4933 2.0742.4978 4.1892 1.12 6.3462 1.8667 2.24.6637 4.315 1.6593 6.223 2.9867 1.991 1.2444 3.567 3.0281 4.729 5.351 1.244 2.24 1.866 5.2267 1.866 8.96-.083 5.0607-1.452 9.1259-4.106 12.1955-2.655 2.9867-6.098 5.1437-10.329 6.4711-4.148 1.2444-8.6699 1.8667-13.5647 1.8667zm67.3767 0c-6.305 0-11.905-1.286-16.8-3.8578-4.812-2.6548-8.587-6.3881-11.324-11.2-2.655-4.8948-3.983-10.7021-3.983-17.4221 0-10.9511 2.697-19.4133 8.089-25.3866 5.476-6.0562 13.274-9.0844 23.396-9.0844 6.969 0 12.569 1.4934 16.8 4.48 4.314 2.9867 7.466 7.3422 9.457 13.0666 1.992 5.7244 2.946 12.6933 2.863 20.9066h-47.911l-1.991-11.8222h34.595l-2.738 5.8489c-.083-6.72-1.037-11.4489-2.862-14.1866-1.825-2.7378-4.812-4.1067-8.96-4.1067-2.323 0-4.438.5808-6.347 1.7422-1.825 1.1615-3.277 3.1111-4.355 5.8489-.996 2.6548-1.493 6.3467-1.493 11.0755 0 5.9733 1.41 10.5778 4.231 13.8133 2.903 3.2355 7.508 4.8533 13.813 4.8533 2.323 0 4.604-.2489 6.844-.7467 2.323-.5807 4.48-1.2444 6.471-1.9911 1.992-.7466 3.692-1.4103 5.103-1.9911v15.9289c-2.987 1.2444-6.347 2.24-10.08 2.9866-3.651.8296-7.923 1.2445-12.818 1.2445zm38.892-1.8667v-56.3731c1.161-.9956 3.235-2.1156 6.222-3.36 2.986-1.3274 6.388-2.4889 10.204-3.4844 3.899-1.0785 7.799-1.6178 11.698-1.6178s6.969.2904 9.209.8711c2.24.5808 3.94 1.3274 5.102 2.24v13.5644c-1.41-.3319-3.194-.5807-5.351-.7467-2.157-.1659-4.397-.2489-6.72-.2489-2.323-.0829-4.522-.0829-6.596 0-2.074.083-3.816.2489-5.226.4978v48.6576zm87.372 0v-48.782h-9.333v-14.1866h9.457v-1.4934c0-4.0651.415-7.5496 1.245-10.4533.829-2.9036 1.991-5.30956 3.484-7.2177 1.494-1.9911 3.236-3.52591 5.227-4.60442 1.991-1.07852 4.189-1.82518 6.595-2.24 2.406-.497769 4.895-.746657 7.467-.746657 1.327 0 2.779.124443 4.356.373327 1.576.165928 2.862.4563 3.857.87111v16.42664c-.746-.9126-1.576-1.6178-2.489-2.1156-.912-.4978-2.157-.7467-3.733-.7467-1.078 0-2.074.1245-2.987.3734-.912.2489-1.7.6637-2.364 1.2444-.664.5808-1.203 1.4104-1.618 2.4889-.332 1.0785-.498 2.4474-.498 4.1067v3.7333h13.689v14.1866h-13.813v48.782zm61.973 0h-18.418v-86.73742h18.418zm42.307 1.8667c-10.619 0-18.625-2.8208-24.018-8.4622-5.309-5.7245-7.964-14.1037-7.964-25.1377 0-11.8637 2.696-20.3673 8.089-25.511 5.475-5.2267 13.44-7.84 23.893-7.84 7.052 0 12.942 1.203 17.671 3.6089 4.812 2.3229 8.421 5.9318 10.827 10.8266 2.489 4.8948 3.733 11.2 3.733 18.9155 0 11.034-2.779 19.4132-8.338 25.1377-5.558 5.6414-13.523 8.4622-23.893 8.4622zm0-14.8089c3.07 0 5.6-.7052 7.591-2.1155 2.074-1.4933 3.609-3.6089 4.605-6.3467 1.078-2.8207 1.617-6.2636 1.617-10.3288 0-4.6459-.539-8.2963-1.617-10.9511-.996-2.7377-2.531-4.6874-4.605-5.8488-2.074-1.2445-4.604-1.8667-7.591-1.8667-3.153 0-5.724.6222-7.716 1.8667-1.991 1.2444-3.484 3.2355-4.48 5.9733-.912 2.6548-1.368 6.2637-1.368 10.8266 0 6.3052 1.078 11.034 3.235 14.1866 2.24 3.0696 5.683 4.6044 10.329 4.6044zm54.459 12.9422-21.156-62.9686h20.036l14.062 50.8975-5.849.2489 13.316-51.1464h13.688l13.067 49.6531h-4.604l13.44-49.6531h19.662l-20.907 62.9686h-16.8l-12.444-40.6932 3.111.3734-11.822 40.3198z" fill="#fff" opacity=".1"/></svg>

<svg width="520" height="92" viewBox="0 0 520 92" fill="none" xmlns="http://www.w3.org/2000/svg">
<path opacity="0.1" d="M29.831 91.8667C24.0236 91.8667 18.8799 90.9541 14.3999 89.1289C9.91993 87.3037 6.4355 84.5245 3.94662 80.7911C1.45774 76.9749 0.213299 72.0386 0.213299 65.9823V27.0314H18.7554V64.489C18.7554 68.4712 19.6266 71.4579 21.3688 73.449C23.1939 75.3571 26.0562 76.3112 29.9554 76.3112C33.9376 76.3112 36.7998 75.3571 38.542 73.449C40.2842 71.4579 41.1554 68.4712 41.1554 64.489V27.0314H58.5775V65.9823C58.5775 74.9423 56.0057 81.4963 50.862 85.6445C45.7183 89.7926 38.708 91.8667 29.831 91.8667ZM91.1303 91.8667C86.6503 91.8667 82.7925 91.3689 79.557 90.3733C76.4044 89.4607 73.4178 88.4237 70.597 87.2622V70.9601C72.3393 72.1216 74.2889 73.3245 76.4459 74.569C78.6029 75.7304 80.9674 76.6845 83.5392 77.4312C86.194 78.1778 88.9733 78.5512 91.877 78.5512C94.8636 78.5512 96.9377 78.0534 98.0991 77.0578C99.3436 75.9793 99.9658 74.6934 99.9658 73.2001C99.9658 71.7897 99.3436 70.6697 98.0991 69.8401C96.8547 68.9275 95.2369 68.1808 93.2458 67.6001C91.2547 67.0194 89.1392 66.4801 86.8992 65.9823C84.9081 65.5675 82.917 64.9453 80.9259 64.1157C78.9348 63.2031 77.1511 62.0001 75.5748 60.5068C73.9985 59.0135 72.7126 57.1883 71.717 55.0313C70.8044 52.7913 70.3481 50.095 70.3481 46.9424C70.3481 42.8772 71.1363 39.5172 72.7126 36.8624C74.2889 34.1247 76.3629 31.9262 78.9348 30.2669C81.5066 28.6077 84.2859 27.4462 87.2725 26.7825C90.2592 26.0358 93.1629 25.704 95.9836 25.7869C101.127 25.9529 105.192 26.5336 108.179 27.5291C111.249 28.4417 114.028 29.6447 116.517 31.138V45.698C113.696 44.1217 110.875 42.6698 108.055 41.3424C105.317 39.9321 102.164 39.2269 98.5969 39.2269C95.3614 39.2269 93.0384 39.7246 91.6281 40.7202C90.2177 41.7158 89.5125 43.0432 89.5125 44.7024C89.5125 46.2787 89.9688 47.5231 90.8814 48.4357C91.877 49.3483 93.1629 50.095 94.7392 50.6757C96.3154 51.1735 98.0577 51.6713 99.9658 52.169C102.04 52.6668 104.155 53.289 106.312 54.0357C108.552 54.6994 110.627 55.695 112.535 57.0224C114.526 58.2668 116.102 60.0505 117.264 62.3734C118.508 64.6134 119.13 67.6001 119.13 71.3334C119.047 76.3941 117.678 80.4593 115.024 83.5289C112.369 86.5156 108.926 88.6726 104.695 90C100.547 91.2444 96.0251 91.8667 91.1303 91.8667ZM158.507 91.8667C152.202 91.8667 146.602 90.5807 141.707 88.0089C136.895 85.3541 133.12 81.6208 130.383 76.8089C127.728 71.9141 126.4 66.1068 126.4 59.3868C126.4 48.4357 129.097 39.9735 134.489 34.0002C139.965 27.944 147.763 24.9158 157.885 24.9158C164.854 24.9158 170.454 26.4092 174.685 29.3958C178.999 32.3825 182.151 36.738 184.142 42.4624C186.134 48.1868 187.088 55.1557 187.005 63.369H139.094L137.103 51.5468H171.698L168.96 57.3957C168.877 50.6757 167.923 45.9468 166.098 43.2091C164.273 40.4713 161.286 39.1024 157.138 39.1024C154.815 39.1024 152.7 39.6832 150.791 40.8446C148.966 42.0061 147.514 43.9557 146.436 46.6935C145.44 49.3483 144.943 53.0402 144.943 57.769C144.943 63.7423 146.353 68.3468 149.174 71.5823C152.077 74.8178 156.682 76.4356 162.987 76.4356C165.31 76.4356 167.591 76.1867 169.831 75.6889C172.154 75.1082 174.311 74.4445 176.302 73.6978C178.294 72.9512 179.994 72.2875 181.405 71.7067V87.6356C178.418 88.88 175.058 89.8756 171.325 90.6222C167.674 91.4518 163.402 91.8667 158.507 91.8667ZM197.399 90V33.6269C198.56 32.6313 200.634 31.5113 203.621 30.2669C206.607 28.9395 210.009 27.778 213.825 26.7825C217.724 25.704 221.624 25.1647 225.523 25.1647C229.422 25.1647 232.492 25.4551 234.732 26.0358C236.972 26.6166 238.672 27.3632 239.834 28.2758V41.8402C238.424 41.5083 236.64 41.2595 234.483 41.0935C232.326 40.9276 230.086 40.8446 227.763 40.8446C225.44 40.7617 223.241 40.7617 221.167 40.8446C219.093 40.9276 217.351 41.0935 215.941 41.3424V90H197.399ZM284.771 90V41.218H275.438V27.0314H284.895V25.538C284.895 21.4729 285.31 17.9884 286.14 15.0847C286.969 12.1811 288.131 9.77514 289.624 7.867C291.118 5.8759 292.86 4.34109 294.851 3.26258C296.842 2.18406 299.04 1.4374 301.446 1.02258C303.852 0.524811 306.341 0.275923 308.913 0.275923C310.24 0.275923 311.692 0.400366 313.269 0.64925C314.845 0.815178 316.131 1.10555 317.126 1.52036V17.947C316.38 17.0344 315.55 16.3292 314.637 15.8314C313.725 15.3336 312.48 15.0847 310.904 15.0847C309.826 15.0847 308.83 15.2092 307.917 15.4581C307.005 15.707 306.217 16.1218 305.553 16.7025C304.889 17.2833 304.35 18.1129 303.935 19.1914C303.603 20.2699 303.437 21.6388 303.437 23.2981V27.0314H317.126V41.218H303.313V90H284.771ZM346.744 90H328.326V3.26258H346.744V90ZM389.051 91.8667C378.432 91.8667 370.426 89.0459 365.033 83.4045C359.724 77.68 357.069 69.3008 357.069 58.2668C357.069 46.4031 359.765 37.8995 365.158 32.7558C370.633 27.5291 378.598 24.9158 389.051 24.9158C396.103 24.9158 401.993 26.1188 406.722 28.5247C411.534 30.8476 415.143 34.4565 417.549 39.3513C420.038 44.2461 421.282 50.5513 421.282 58.2668C421.282 69.3008 418.503 77.68 412.944 83.4045C407.386 89.0459 399.421 91.8667 389.051 91.8667ZM389.051 77.0578C392.121 77.0578 394.651 76.3526 396.642 74.9423C398.716 73.449 400.251 71.3334 401.247 68.5956C402.325 65.7749 402.864 62.332 402.864 58.2668C402.864 53.6209 402.325 49.9705 401.247 47.3157C400.251 44.578 398.716 42.6283 396.642 41.4669C394.568 40.2224 392.038 39.6002 389.051 39.6002C385.898 39.6002 383.327 40.2224 381.335 41.4669C379.344 42.7113 377.851 44.7024 376.855 47.4402C375.943 50.095 375.487 53.7039 375.487 58.2668C375.487 64.572 376.565 69.3008 378.722 72.4534C380.962 75.523 384.405 77.0578 389.051 77.0578ZM443.51 90L422.354 27.0314H442.39L456.452 77.9289L450.603 78.1778L463.919 27.0314H477.607L490.674 76.6845H486.07L499.51 27.0314H519.172L498.265 90H481.465L469.021 49.3068L472.132 49.6802L460.31 90H443.51Z" fill="white"/>
</svg>
